static/assets/svg/human/humanClothes/female_skirt1_stickers/female_skirt1_sticker8.svg

<svg class="bottomOverlay" width="86" height="380" viewBox="202.715 584.407 86.59 380.048" xmlns="http://www.w3.org/2000/svg"><defs><linearGradient id="a" gradientUnits="userSpaceOnUse" x1="249.365" y1="757.033" x2="249.365" y2="843.92"><stop offset="0" stop-color="#d8d8d8"/><stop offset=".145" stop-color="#15f8f1"/><stop offset=".284" stop-color="#233fde"/><stop offset=".429" stop-color="red"/><stop offset=".705" stop-color="#505050"/><stop offset="1" stop-color="#a5a5a5"/></linearGradient></defs><path d="M231.949 762.859c-1.51 0-2.952 8.108-3.654 9.745-5.243 12.233-5.993 23.639-6.699 37.761-.305 6.096-1.219 18.272-1.219 18.272s-.262-5.292 0-7.918c.895-8.946 5.176-18.878 9.136-26.798.249-.497-.674-10.419 0-9.745 7.346 7.345 5.473 32.352 4.264 42.633-.077.654-1.225 19.497 0 18.272 1.443-1.444.6-9.103 1.218-11.572 1.582-6.33 6.816-29.61 3.654-35.934-1.18-2.36-6.448-13.042-4.263-15.226 2.44-2.441 4.123 5.766 4.872 9.135 2.473 11.128 1.804 23.003 3.654 34.107.292 1.749 6.091 13.399 6.091 13.399s-2.436-13.853-2.436-14.617V787.83c0-1.619-1.827-13.399-1.827-13.399s3.64 12.568 4.263 13.399c6.397 8.53 7.19 17.16 7.988 26.615.381 4.517.763 9.221 1.757 14.192.122.613 2.436 14.008 2.436 14.008s-.105-13.988 0-14.618c2.587-15.523-.803-29.358 5.481-45.069 1.827-4.567-6.829-12.052-4.872-14.009.967-.966 4.576 7.621 5.481 8.527 7.456 7.456 4.678 26.823 7.918 36.543.461 1.384.806 14.421 3.045 12.181 1.265-1.264-3.045-12.803-3.045-15.226 0-11.673 1.196-47.213-9.136-52.378-2.857-1.429-6.23 1.897-10.963 4.263-2.812 1.406-10.184-5.651-14.008-1.827-1.697 1.698-1.033-3.23-1.827-2.436-1.434 1.434-.974 7.673-1.827 8.526-1.11 1.11-3.045-7.308-3.045-7.308s-3.205 3.045-4.264 3.045" stroke="#000" fill="url(#a)"/></svg>

<svg class="bottomOverlay" width="86" height="380" viewBox="202.71499633789062 584.406982421875 86.58999633789062 380.0480041503906" preserveAspectRatio="xMidYMid meet" xmlns="http://www.w3.org/2000/svg">
  <defs id="svgEditorDefs">
    <path id="svgEditorClosePathDefs" class="lines" fill="black" style="stroke-width: 0px; stroke: none;"/>
    <linearGradient id="gradient-69" gradientUnits="userSpaceOnUse" x1="249.365" y1="757.033" x2="249.365" y2="843.92">
      <stop offset="0" style="stop-color: rgba(216, 216, 216, 1)"/>
      <stop offset="0.145" style="stop-color: rgb(21, 248, 241);"/>
      <stop offset="0.284" style="stop-color: rgb(35, 63, 222);"/>
      <stop offset="0.429" style="stop-color: rgb(255, 0, 0);"/>
      <stop offset="0.705" style="stop-color: rgb(80, 80, 80);"/>
      <stop offset="1" style="stop-color: rgba(165, 165, 165, 1)"/>
    </linearGradient>
  </defs>
  <path d="M 231.949 762.859 C 230.439 762.859 228.997 770.967 228.295 772.604 C 223.052 784.837 222.302 796.243 221.596 810.365 C 221.291 816.461 220.377 828.637 220.377 828.637 C 220.377 828.637 220.115 823.345 220.377 820.719 C 221.272 811.773 225.553 801.841 229.513 793.921 C 229.762 793.424 228.839 783.502 229.513 784.176 C 236.859 791.521 234.986 816.528 233.777 826.809 C 233.7 827.463 232.552 846.306 233.777 845.081 C 235.22 843.637 234.377 835.978 234.995 833.509 C 236.577 827.179 241.811 803.899 238.649 797.575 C 237.469 795.215 232.201 784.533 234.386 782.349 C 236.826 779.908 238.509 788.115 239.258 791.484 C 241.731 802.612 241.062 814.487 242.912 825.591 C 243.204 827.34 249.003 838.99 249.003 838.99 C 249.003 838.99 246.567 825.137 246.567 824.373 C 246.567 813.759 246.567 800.263 246.567 787.83 C 246.567 786.211 244.74 774.431 244.74 774.431 C 244.74 774.431 248.38 786.999 249.003 787.83 C 255.4 796.36 256.193 804.99 256.991 814.445 C 257.372 818.962 257.754 823.666 258.748 828.637 C 258.87 829.25 261.184 842.645 261.184 842.645 C 261.184 842.645 261.079 828.657 261.184 828.027 C 263.771 812.504 260.381 798.669 266.665 782.958 C 268.492 778.391 259.836 770.906 261.793 768.949 C 262.76 767.983 266.369 776.57 267.274 777.476 C 274.73 784.932 271.952 804.299 275.192 814.019 C 275.653 815.403 275.998 828.44 278.237 826.2 C 279.502 824.936 275.192 813.397 275.192 810.974 C 275.192 799.301 276.388 763.761 266.056 758.596 C 263.199 757.167 259.826 760.493 255.093 762.859 C 252.281 764.265 244.909 757.208 241.085 761.032 C 239.388 762.73 240.052 757.802 239.258 758.596 C 237.824 760.03 238.284 766.269 237.431 767.122 C 236.321 768.232 234.386 759.814 234.386 759.814 C 234.386 759.814 231.181 762.859 230.122 762.859" style="stroke: rgb(0, 0, 0); fill: url(#gradient-69);"/>
</svg>
